!!!OTL: WOHL IST DER HERBST EIN EHRENMANN
!!!ARE: Europa, Mitteleuropa, Deutschland
!!!SCT: F0276
!!!YEM: Copyright 1995, estate of Helmut Schaffrath.
**kern
*ICvox
*Ivox
*M2/4
*k[]
*C:
{16c
=1
8.G
16E
8.G
16E
=2
8F
8D
8E
16r}
{16F#
=3
16G
16A
16B
16c
8d
16B
16G
=4
8.A
16B
8G
16r}
{16d
=5
8.d
16B
8.d
16B
=6
8c
8A
8B
16r}
{16d
=7
8.d
16B
16d
16g
16d
16B
=8
8c
8A
8B
16r}
{16G
=9
16c
16d
16e
16f
8g
16e
16c
=10
8.d
16e
8c
16r}
==
!!!AGN: Jugend - Lied, Jahreszeiten, Herbst
!!!ONB: ESAC (Essen Associative Code) Database: FINK
!!!AMT: simple duple
!!!AIN: vox
!!!EED: Helmut Schaffrath
!!!EEV: 1.0
*-
